teeny/solid/simohamed.svg

<svg width="15" height="15" viewBox="0 0 15 15" fill="none" xmlns="http://www.w3.org/2000/svg">
<path d="M6.00007 9H5.00007V8H6.00007V9Z" fill="black"/>
<path d="M10.0001 9H9.00007V8H10.0001V9Z" fill="black"/>
<path fill-rule="evenodd" clip-rule="evenodd" d="M2.00007 5.5C2.00007 2.46243 4.4625 0 7.50007 0C10.5376 0 13.0001 2.46243 13.0001 5.5V6.06051C14.0737 6.32643 14.7833 7.42855 14.5001 8.56155L14.3489 9.16606C14.1229 10.0703 13.4049 10.7481 12.5235 10.943C12.3143 11.4589 12.0383 11.949 11.7001 12.4L11.1001 13.2C10.2502 14.3331 8.91648 15 7.50007 15C6.08366 15 4.74991 14.3331 3.90007 13.2L3.30007 12.4C2.96182 11.949 2.68587 11.4589 2.47661 10.943C1.59522 10.7481 0.877246 10.0703 0.651194 9.16605L0.500068 8.56155C0.216818 7.42855 0.926407 6.32643 2.00007 6.06051V5.5ZM3.00007 7H6.00007V6H3.00007V5.70711L3.97494 4.73223C4.44378 4.26339 5.07967 4 5.74271 4H9.25743C9.92047 4 10.5564 4.26339 11.0252 4.73223L12.0001 5.70711V6H9.00007V7H12.0001V8.5C12.0001 9.25789 11.8435 10.0028 11.5454 10.6897L10.9054 11.0737C10.555 11.2839 10.1872 11.4597 9.80691 11.5997L8.70717 10.5H6.29296L5.19323 11.5997C4.81297 11.4597 4.44509 11.2839 4.09473 11.0737L3.45476 10.6897C3.15662 10.0028 3.00007 9.25789 3.00007 8.5V7ZM2.00007 7.12441C1.58869 7.34454 1.34698 7.8261 1.47021 8.31902L1.62134 8.92352C1.69865 9.23276 1.87398 9.49688 2.1092 9.68611C2.03697 9.29696 2.00007 8.90001 2.00007 8.5V7.12441ZM6.30657 11.9006C6.67892 11.9665 7.05778 12 7.43896 12H7.56118C7.94236 12 8.32121 11.9665 8.69356 11.9006L8.29296 11.5H6.70718L6.30657 11.9006ZM12.8909 9.68611C13.1262 9.49688 13.3015 9.23276 13.3788 8.92352L13.5299 8.31902C13.6532 7.8261 13.4114 7.34454 13.0001 7.12441V8.5C13.0001 8.90001 12.9632 9.29696 12.8909 9.68611Z" fill="black"/>
</svg>

<svg viewBox="0 0 15 15" xmlns="http://www.w3.org/2000/svg"><g><path d="M6 9H5V8h1v1Z"/><path d="M10 9H8.99V8h1v1Z"/><path fill-rule="evenodd" d="M2 5.5C2 2.46 4.46 0 7.5 0 10.53 0 13 2.46 13 5.5v.56c1.07.26 1.78 1.36 1.5 2.5l-.16.6c-.23.9-.95 1.58-1.83 1.77 -.21.51-.49 1-.83 1.45l-.6.8c-.85 1.13-2.19 1.8-3.61 1.8s-2.76-.67-3.6-1.8l-.6-.8c-.34-.46-.62-.95-.83-1.46 -.89-.2-1.6-.88-1.83-1.78l-.16-.61c-.29-1.14.42-2.24 1.5-2.51v-.57ZM3 7h3V6H3v-.3l.97-.98c.46-.47 1.1-.74 1.76-.74h3.51c.66 0 1.29.26 1.76.73l.97.97v.29H8.96v1h3v1.5c0 .75-.16 1.5-.46 2.18l-.64.38c-.36.21-.72.38-1.1.52l-1.1-1.1H6.24l-1.1 1.09c-.39-.14-.75-.32-1.1-.53l-.64-.39c-.3-.69-.46-1.44-.46-2.19v-1.5Zm-1 .12c-.42.22-.66.7-.53 1.19l.15.6c.07.3.25.57.48.76 -.08-.39-.11-.79-.11-1.19V7.1Zm4.3 4.77c.37.06.75.09 1.13.09h.12c.38 0 .76-.04 1.13-.1l-.41-.41H6.68l-.41.4Zm6.58-2.22c.23-.19.41-.46.48-.77l.15-.61c.12-.5-.12-.98-.53-1.2v1.37c0 .4-.04.79-.11 1.18Z"/></g></svg>
